X:1
T:Verona, 77.77.77
T:Verona, 77.77.77
T:John H. Deane
T:Public Domain Courtesy of the Cyber Hymnal™
C:John H. Deane
Z:Public Domain
Z:Courtesy of the Cyber Hymnal™
%%score ( 1 2 ) ( 3 4 )
L:1/8
Q:1/4=105
M:2/4
K:G
V:1 treble 
V:2 treble 
V:3 bass 
V:4 bass 
V:1
 [B,D]2 [DG]2 | [DG]2 [DF]2 | [DF]2 [CE]2 | (E2 D2) | [B,G]2 [=Fd]2 | [Ed]2 [DB]2 | [^CB]2 [CA]2 | %7
 [DA]4 | [DB]2 [Ee]2 | [Ad]2 [DA]2 | [EG]2 [Gc]2 | (B2 F2) | [CE]2 [EA]2 | %13
 [EG]2 [CF]2 [B,E]2 [B,^D]2 | [B,E]4 | [B,D]2 [DG]2 | [DG]2 [DF]2 | [DF]2 [CE]2 x4 | (E2 D2) | %19
 [B,G]2 [=Fd]2 | [Ec]2 [DB]2 | [^CA]2 [DB]2 | [B,G]4 |] %23
V:2
 x4 | x4 | x4 | C4 | x4 | x4 | x4 | x4 | x4 | x4 | x4 | F4 | x4 | x8 | x4 | x4 | x4 | x8 | C4 | %19
 x4 | x4 | x4 | x4 |] %23
V:3
 [G,B,]2 [G,B,]2 | [A,C]2 [A,C]2 | [A,C]2 [G,A,]2 | [F,A,]4 | [E,G,]2 [B,,G,]2 | [C,G,]2 [D,G,]2 | %6
 [E,G,]2 [A,,G,]2 | [D,F,]4 | G,2 [G,B,]2 | [F,A,]2 [F,A,]2 | [E,B,]2 [E,C]2 | (D2 B,2) | %12
 [C,G,]2 [A,,C]2 | [E,B,]2 [A,,A,]2 x4 | [B,,G,]2 [B,,F,]2 | [E,G,]4 | [G,B,]2 [G,B,]2 | %17
 [A,C]2 [A,C]2 [A,C]2 [G,A,]2 | [F,A,]4 | [E,G,]2 [B,,G,]2 | [C,G,]2 [D,G,]2 | [E,G,]2 [D,F,]2 | %22
 [G,,G,]4 |] %23
V:4
 x4 | x4 | x4 | x4 | x4 | x4 | x4 | x4 | G,2 x2 | x4 | x4 | D,4 | x4 | x8 | x4 | x4 | x4 | x8 | %18
 x4 | x4 | x4 | x4 | x4 |] %23

